build/img/icons/discussion.svg

<svg width="26" height="26" viewBox="0 0 26 26" fill="none" xmlns="http://www.w3.org/2000/svg">
<g clip-path="url(#clip0)">
<path d="M24.1041 1.625H1.89581C1.44731 1.625 1.08331 1.261 1.08331 0.8125C1.08331 0.364 1.44731 0 1.89581 0H24.1041C24.5526 0 24.9166 0.364 24.9166 0.8125C24.9166 1.261 24.5526 1.625 24.1041 1.625Z" fill="#201D54"/>
<path d="M19.7708 13H18.1458C17.6973 13 17.3333 12.636 17.3333 12.1875C17.3333 11.739 17.6973 11.375 18.1458 11.375H19.7708C20.5173 11.375 21.125 10.7673 21.125 10.0208V1.625H4.875V10.0208C4.875 10.7673 5.48275 11.375 6.22917 11.375H7.85417C8.30267 11.375 8.66667 11.739 8.66667 12.1875C8.66667 12.636 8.30267 13 7.85417 13H6.22917C4.58575 13 3.25 11.6643 3.25 10.0208V0.8125C3.25 0.364 3.614 0 4.0625 0H21.9375C22.386 0 22.75 0.364 22.75 0.8125V10.0208C22.75 11.6643 21.4143 13 19.7708 13Z" fill="#201D54"/>
<path d="M8.93747 9.74993C8.72947 9.74993 8.52147 9.67084 8.36331 9.51159C8.04589 9.19418 8.04589 8.67959 8.36331 8.36218L11.0716 5.65384C11.3306 5.39384 11.7303 5.33968 12.0488 5.52276L13.4279 6.31143L16.5111 3.46551C16.8393 3.16218 17.355 3.18059 17.6594 3.51101C17.9638 3.84143 17.9432 4.35493 17.6139 4.65934L14.0931 7.90934C13.8331 8.14984 13.4474 8.19426 13.1386 8.01768L11.7823 7.24201L9.51164 9.51159C9.35347 9.67084 9.14547 9.74993 8.93747 9.74993Z" fill="#201D54"/>
<path d="M17.0625 7.58333C16.614 7.58333 16.25 7.21933 16.25 6.77083V4.875H14.3541C13.9056 4.875 13.5416 4.511 13.5416 4.0625C13.5416 3.614 13.9056 3.25 14.3541 3.25H17.0625C17.511 3.25 17.875 3.614 17.875 4.0625V6.77083C17.875 7.21933 17.511 7.58333 17.0625 7.58333Z" fill="#201D54"/>
<path d="M21.6667 18.4166C20.4718 18.4166 19.5 17.4448 19.5 16.2499C19.5 15.055 20.4718 14.0833 21.6667 14.0833C22.8616 14.0833 23.8333 15.055 23.8333 16.2499C23.8333 17.4448 22.8616 18.4166 21.6667 18.4166ZM21.6667 15.7083C21.3677 15.7083 21.125 15.9509 21.125 16.2499C21.125 16.5489 21.3677 16.7916 21.6667 16.7916C21.9657 16.7916 22.2083 16.5489 22.2083 16.2499C22.2083 15.9509 21.9657 15.7083 21.6667 15.7083Z" fill="#201D54"/>
<path d="M25.1875 23.8333C24.739 23.8333 24.375 23.4693 24.375 23.0208V22.4792C24.375 21.7328 23.7673 21.125 23.0208 21.125H20.3125C19.864 21.125 19.5 20.761 19.5 20.3125C19.5 19.864 19.864 19.5 20.3125 19.5H23.0208C24.6643 19.5 26 20.8358 26 22.4792V23.0208C26 23.4693 25.636 23.8333 25.1875 23.8333Z" fill="#201D54"/>
<path d="M4.33335 18.4166C3.13844 18.4166 2.16669 17.4448 2.16669 16.2499C2.16669 15.055 3.13844 14.0833 4.33335 14.0833C5.52827 14.0833 6.50002 15.055 6.50002 16.2499C6.50002 17.4448 5.52827 18.4166 4.33335 18.4166ZM4.33335 15.7083C4.03435 15.7083 3.79169 15.9509 3.79169 16.2499C3.79169 16.5489 4.03435 16.7916 4.33335 16.7916C4.63235 16.7916 4.87502 16.5489 4.87502 16.2499C4.87502 15.9509 4.63235 15.7083 4.33335 15.7083Z" fill="#201D54"/>
<path d="M0.8125 23.8333C0.364 23.8333 0 23.4693 0 23.0208V22.4792C0 20.8358 1.33575 19.5 2.97917 19.5H5.6875C6.136 19.5 6.5 19.864 6.5 20.3125C6.5 20.761 6.136 21.125 5.6875 21.125H2.97917C2.23275 21.125 1.625 21.7328 1.625 22.4792V23.0208C1.625 23.4693 1.261 23.8333 0.8125 23.8333Z" fill="#201D54"/>
<path d="M13 18.9583C11.2082 18.9583 9.75 17.5001 9.75 15.7083C9.75 13.9164 11.2082 12.4583 13 12.4583C14.7918 12.4583 16.25 13.9164 16.25 15.7083C16.25 17.5001 14.7918 18.9583 13 18.9583ZM13 14.0833C12.1041 14.0833 11.375 14.8123 11.375 15.7083C11.375 16.6042 12.1041 17.3333 13 17.3333C13.8959 17.3333 14.625 16.6042 14.625 15.7083C14.625 14.8123 13.8959 14.0833 13 14.0833Z" fill="#201D54"/>
<path d="M18.1458 25.9999C17.6973 25.9999 17.3333 25.6359 17.3333 25.1874V23.5624C17.3333 22.816 16.7255 22.2083 15.9791 22.2083H10.0208C9.27438 22.2083 8.66663 22.816 8.66663 23.5624V25.1874C8.66663 25.6359 8.30263 25.9999 7.85413 25.9999C7.40563 25.9999 7.04163 25.6359 7.04163 25.1874V23.5624C7.04163 21.919 8.37738 20.5833 10.0208 20.5833H15.9791C17.6225 20.5833 18.9583 21.919 18.9583 23.5624V25.1874C18.9583 25.6359 18.5943 25.9999 18.1458 25.9999Z" fill="#201D54"/>
</g>
<defs>
<clipPath id="clip0">
<rect width="26" height="26" fill="white"/>
</clipPath>
</defs>
</svg>

<svg width="26" height="26" fill="none" xmlns="http://www.w3.org/2000/svg"><g clip-path="url(#clip0)" fill="#201D54"><path d="M24.104 1.625H1.896a.813.813 0 010-1.625h22.208a.813.813 0 010 1.625z"/><path d="M19.77 13h-1.624a.813.813 0 010-1.625h1.625c.746 0 1.354-.608 1.354-1.354V1.625H4.875v8.396c0 .746.608 1.354 1.354 1.354h1.625a.813.813 0 010 1.625H6.23a2.982 2.982 0 01-2.979-2.98V.814c0-.449.364-.813.813-.813h17.875c.448 0 .812.364.812.813v9.208A2.982 2.982 0 0119.77 13z"/><path d="M8.937 9.75a.813.813 0 01-.574-1.388l2.709-2.708a.809.809 0 01.977-.131l1.379.788 3.083-2.845a.813.813 0 011.103 1.193l-3.52 3.25a.811.811 0 01-.955.109l-1.357-.776-2.27 2.27a.806.806 0 01-.575.238z"/><path d="M17.063 7.583a.813.813 0 01-.813-.812V4.875h-1.896a.813.813 0 010-1.625h2.709c.448 0 .812.364.812.813V6.77a.813.813 0 01-.813.812zm4.604 10.834A2.169 2.169 0 0119.5 16.25a2.17 2.17 0 012.167-2.167c1.195 0 2.166.972 2.166 2.167a2.169 2.169 0 01-2.166 2.167zm0-2.709a.542.542 0 100 1.084.542.542 0 000-1.084zm3.521 8.125a.813.813 0 01-.813-.812v-.542c0-.746-.608-1.354-1.354-1.354h-2.709a.813.813 0 010-1.625h2.709A2.982 2.982 0 0126 22.48v.54a.813.813 0 01-.813.813zM4.333 18.417a2.169 2.169 0 01-2.166-2.167c0-1.195.971-2.167 2.166-2.167A2.17 2.17 0 016.5 16.25a2.169 2.169 0 01-2.167 2.167zm0-2.709a.542.542 0 100 1.084.542.542 0 000-1.084zm-3.52 8.125A.813.813 0 010 23.021v-.542A2.982 2.982 0 012.98 19.5h2.708a.813.813 0 010 1.625h-2.71c-.746 0-1.354.608-1.354 1.354v.542a.813.813 0 01-.813.812zM13 18.958a3.254 3.254 0 01-3.25-3.25 3.254 3.254 0 013.25-3.25 3.254 3.254 0 013.25 3.25 3.254 3.254 0 01-3.25 3.25zm0-4.875c-.896 0-1.625.73-1.625 1.625 0 .896.73 1.625 1.625 1.625.896 0 1.625-.729 1.625-1.625s-.73-1.625-1.625-1.625zM18.146 26a.813.813 0 01-.813-.813v-1.625c0-.746-.607-1.354-1.354-1.354h-5.958c-.747 0-1.354.608-1.354 1.354v1.625a.813.813 0 01-1.625 0v-1.625a2.982 2.982 0 012.979-2.979h5.958a2.982 2.982 0 012.98 2.98v1.624a.813.813 0 01-.813.813z"/></g><defs><clipPath id="clip0"><path fill="#fff" d="M0 0h26v26H0z"/></clipPath></defs></svg>
